X:1
T:Title
%%score ( 1 2 3 ) { 4 | ( 5 6 ) }
L:1/8
M:4/4
K:Bb
V:1 treble nm="Bright Piano"
V:2 treble 
V:3 treble 
V:4 bass nm="Bright Piano"
V:5 bass 
V:6 bass 
V:1
 z4 z2[Q:1/4=100] [B,D][CE] | [DF]2 [FB]2 [EG]2 [EB]2 | [DF]3 [CE] [B,D]2 [B,D][CE] | %3
 [DF]2 [DB]2 [Ec]2 [DB]2 | B4 z4 | z4 d2 z2 | z4 A2 z2 | z4 A2 z2 | F4 z2 F2 | %9
 [EF]2 [Ec]2 [EA]2 [EF]2 | [EF]3 [EG] [EF]2 [CF]2 | z4 .c2 .A2 | [DF]2 [EG]2 [DF]2 F2 | %13
 [Fd]4 [Fd]4 | [Ee]4 d2 c2 | [FB]4 [EA]4 |[M:3/4] [DB]4 z2 |] %17
V:2
 x8 | x8 | x8 | x8 | C2 z A [EA]2 [EF]2 | [Dd]4 D2- [Dc]2 | [DB]4 D2- [DG]2 | [Fc]4 =E2- [EG]2 | %8
 x8 | x8 | x8 | [B,F]2 [Dd]2 E-[EB]E-[EG] | x8 | x8 | z4 G4 | x8 |[M:3/4] x6 |] %17
V:3
 x8 | x8 | x8 | x8 | z2 E2 z4 | x8 | x8 | x8 | x8 | x8 | x8 | x8 | x8 | x8 | x8 | x8 |[M:3/4] x6 |] %17
V:4
 z4 z2 F,2 | B,2 D2 B,2 G,2 | B,2 A,2 F,2 F,2 | B,2 F,2 F,2 F,2 | F,4 F,2 F,2 | F,4 ^F,4 | %6
 G,4 G,2 B,2 | A,4 B,4 | A,4 z2 F,2 | A,2 A,2 C2 A,2 | A,2 C2 A,2 A,2 | B,2 B,2 G,2 G,A, | %12
 B,2 F,2 B,2 B,2 | B,4 B,4 | B,4[K:treble] C2 E2 | D4 C4 |[M:3/4] B,4 z2 |] %17
V:5
 z4 z2 B,,2 | B,,2 B,,2 E,2 E,2 | B,,2 F,2 B,,2 B,,2 | B,,2 B,,2 A,,2 B,,2 | E,2 z F, C,2 A,,2 | %5
 B,,4 A,,4 | G,,4 B,,4 | C,8 | F,4 z4 | F,2 F,2 F,2 F,2 | F,2 A,,2 C,2 E,2 | D,2 B,,2 B,,2 B,,2 | %12
 B,,2 B,,2 B,,2 D,2 | B,,4 _A,4 | G,4 E,4 | F,8 |[M:3/4] B,,4 z2 |] %17
V:6
 x8 | x8 | x8 | x8 | z2 C,2 z4 | x8 | x8 | x8 | x8 | x8 | x8 | x8 | x8 | x8 | x8 | x8 | %16
[M:3/4] x6 |] %17

